images/icons/armor.svg

<svg id="Layer_1" data-name="Layer 1" xmlns="http://www.w3.org/2000/svg" viewBox="0 0 64 64"><defs><style>.cls-2{fill:#681e22}.cls-3{fill:none;stroke:#681e22;stroke-miterlimit:10;stroke-width:3px}.cls-4{fill:#7f7f7f}</style></defs><path fill="#c3c3c3" d="M1.5 1.5h61v61h-61z"/><path class="cls-2" d="M61 3v58H3V3h58m3-3H0v64h64V0z"/><path class="cls-3" d="M3 19.5h7M8.5 21V7M8 8.5h13M19.5 3v6M61 44.5h-7M55.5 43v14M56 55.5H43M44.5 61v-6"/><path class="cls-2" d="M10 54v2H8v-2h2m2-2H6v6h6v-6z"/><path class="cls-4" d="M8 54h2v2H8zM57 46h4v15h-4z"/><path class="cls-4" d="M46 57h15v4H46zM3 3h4v15H3z"/><path class="cls-4" d="M3 3h15v4H3z"/><path class="cls-2" d="M56 8v2h-2V8h2m2-2h-6v6h6V6z"/><path class="cls-4" d="M54 8h2v2h-2z"/></svg>

<svg xmlns="http://www.w3.org/2000/svg" viewBox="0 0 64 64"><defs><style>.cls-1{fill:#c3c3c3;}.cls-2{fill:#681e22;}.cls-3{fill:none;stroke:#681e22;stroke-miterlimit:10;stroke-width:3px;}.cls-4{fill:#7f7f7f;}</style></defs><title>Artboard 1</title><g id="Layer_1" data-name="Layer 1"><rect class="cls-1" x="1.5" y="1.5" width="61" height="61"/><path class="cls-2" d="M61,3V61H3V3H61m3-3H0V64H64V0Z"/></g><g id="Layer_2" data-name="Layer 2"><line class="cls-3" x1="3" y1="19.5" x2="10" y2="19.5"/><line class="cls-3" x1="8.5" y1="21" x2="8.5" y2="7"/><line class="cls-3" x1="8" y1="8.5" x2="21" y2="8.5"/><line class="cls-3" x1="19.5" y1="3" x2="19.5" y2="9"/><line class="cls-3" x1="61" y1="44.5" x2="54" y2="44.5"/><line class="cls-3" x1="55.5" y1="43" x2="55.5" y2="57"/><line class="cls-3" x1="56" y1="55.5" x2="43" y2="55.5"/><line class="cls-3" x1="44.5" y1="61" x2="44.5" y2="55"/><path class="cls-2" d="M10,54v2H8V54h2m2-2H6v6h6V52Z"/><rect class="cls-4" x="8" y="54" width="2" height="2"/><rect class="cls-4" x="57" y="46" width="4" height="15"/><rect class="cls-4" x="46" y="57" width="15" height="4"/><rect class="cls-4" x="3" y="3" width="4" height="15"/><rect class="cls-4" x="3" y="3" width="15" height="4"/><path class="cls-2" d="M56,8v2H54V8h2m2-2H52v6h6V6Z"/><rect class="cls-4" x="54" y="8" width="2" height="2"/></g></svg>
